webroot/img/icon_twitter.svg

<svg width="16" height="12" viewBox="0 0 16 12" fill="none" xmlns="http://www.w3.org/2000/svg">
<path d="M15.3144 1.42105C14.7684 1.65696 14.1808 1.81555 13.5645 1.88747C14.1942 1.52103 14.677 0.942111 14.9043 0.250773C14.3153 0.590607 13.6637 0.836729 12.9692 0.968715C12.4137 0.394516 11.6223 0.0358887 10.7457 0.0358887C9.0645 0.0358887 7.70045 1.35858 7.70045 2.99133C7.70045 3.22337 7.72705 3.44916 7.77931 3.66559C5.24807 3.54218 3.00276 2.36478 1.50123 0.576533C1.23872 1.01325 1.08871 1.52026 1.08871 2.06245C1.08871 3.08744 1.62618 3.99366 2.44341 4.52264C1.94344 4.50702 1.47463 4.37495 1.06296 4.15234V4.18984C1.06296 5.62263 2.11293 6.8172 3.50668 7.08907C3.2512 7.15626 2.98242 7.19299 2.70429 7.19299C2.5082 7.19299 2.3176 7.17506 2.13164 7.13987C2.5191 8.31487 3.64416 9.16952 4.97775 9.19303C3.93482 9.98675 2.62148 10.4587 1.19418 10.4587C0.948056 10.4587 0.705882 10.4446 0.466797 10.4173C1.81601 11.2563 3.41606 11.7462 5.13711 11.7462C10.7402 11.7462 13.8043 7.23993 13.8043 3.33365L13.7957 2.95082C14.3894 2.53513 14.9059 2.01482 15.3144 1.42105Z" fill="#00ADEE"/>
</svg>

<svg viewBox="0 0 16 12" xmlns="http://www.w3.org/2000/svg">
  <path d="M15.31 1.42c-.54.24-1.13.4-1.75.47A2.98 2.98 0 0014.9.25c-.58.34-1.24.59-1.93.72a3.09 3.09 0 00-2.22-.93 3 3 0 00-2.97 3.63A8.74 8.74 0 011.5.57a2.93 2.93 0 00.94 3.95 3.1 3.1 0 01-1.38-.37v.04a2.98 2.98 0 002.45 2.9 3.15 3.15 0 01-1.38.05 3.04 3.04 0 002.85 2.05 6.23 6.23 0 01-4.51 1.23 8.82 8.82 0 004.67 1.33c5.6 0 8.66-4.51 8.66-8.42v-.38c.59-.41 1.1-.94 1.51-1.53z" fill="#00ADEE"/>
</svg>
